icons/core/download.svg

<svg width="32" height="32" viewBox="0 0 32 32" fill="none" xmlns="http://www.w3.org/2000/svg">
<path fill-rule="evenodd" clip-rule="evenodd" d="M14.9999 20.0858L14.9999 2H16.9999L16.9999 20.0858L23.7929 13.2929L25.2071 14.7071L16.707 23.2071L15.9999 23.9142L15.2928 23.2071L6.79289 14.7071L8.20711 13.2929L14.9999 20.0858ZM4 28V24H6V28H26V24H28V28C28 29.1046 27.1046 30 26 30H6C4.89543 30 4 29.1046 4 28Z" fill="black"/>
</svg>

<svg viewBox="0 0 32 32" xmlns="http://www.w3.org/2000/svg"><path fill-rule="evenodd" d="M15 20.086V2h2v18.086l6.793-6.793 1.414 1.414-8.5 8.5-.707.707-.707-.707-8.5-8.5 1.414-1.414L15 20.086zM4 28v-4h2v4h20v-4h2v4a2 2 0 01-2 2H6a2 2 0 01-2-2z"/></svg>
